X: 1294
T: Kürdîlihicazkâr Aranağme (Türkaksağı)
C: ?
O: Turkey
F: http://compmusic.upf.edu/node/140
N: kurdilihicazkar--aranagme--turkaksagi--1--
N: makam= kurdilihicazkar
N: form= aranagme
N: usul= turkaksagi = 5/8
M: 5/8
L: 1/16
K: C _B _e _A 
Q: 1/4=120
%%MIDI tuningsystem comma53
(3gab(3agf g4 d2 | (3def (3edcd4BA  | \
w:  ARANAĞME  |   | 
G{A}G/F/GA B{c}B/A/Bc d_2/4e | 
w:   | 
f{g}f/_2/4e/ f2g4gc'  | bagf e3/2d/ce dc | \
w:   |   | 
(3BcB (3AGF(3GAB (3cd_2/4efg  | 
w:   | 
(3gab(3agf g4 d2 | (3def (3edcd4BA  | \
w:  ARANAĞME  |   | 
G{A}G/F/GA B{c}B/A/Bc d_2/4e | 
w:   | 
f{g}f/_2/4e/ f2g4gc'  | bagf e3/2d/ce dc | \
w:   |   | 
(3BcB (3AGFG4z2  | 
w:   | 
|


